X:627
M:C|
L:1/8
K:A
ecAc BFFB|defg aefd|deBc A2A||cdaf ecAc|dbcA BFFB|cefa eaca|BFFB A2 Ae|
ceaf ecAc|dbcA BFFB|cefg aefd|caBg a2a2||

